X:7
T: A bátai bíró lánya
K:F
L:1/4
M:2/4
gd/e/ | f/d/c | f2 | 
gd/e/ | f/d/c | B2 | 
cd | B/G/G/F/ | BG | 
cd | B/G/G/F/ | GG | 

